X: 5
T: Fairy Queen, The
C: Turlough O'Carolan
Z: Lanair
S: https://thesession.org/tunes/243#setting50782
R: waltz
M: 3/4
L: 1/8
K: Dmaj
|: d4A2|c4A2 | d4A2|d>c d>e f>e | d3c BA|F3 E<FA | B4c2|d4 f>e |
d4a2|c4a2 | B3c BA|F4A2 | B>A Bc dB|Af e4 | d6-|d6 :|
|: fe fg fg|fe fg fd | e4e2|e2f2a2 | d3d ad|c3c ac | BA Bc BA|F3ABc |
dc BA F>E |D4cd | e3d cB|A4de |f4B2|e4A2 | d6-|d6 :|
d2d2c2|B2A2G2 | F4E2|D6 | d2d2A2|B2c2d2 | e>f ed cB|A4de |
f4f2|e4e2 | d2d2BA|F4dc | BA Bc BA |FE DE FA | B6- | B3 ABc |
d2 d2 c2 |B2A2G2 | F4E2|D4c2 | d6|e6 | f6|f4A2 |
BA Bc Bc|dc de dc | BA Bc BA|F4dc | BA Bc dA|Bf e4 | d6-|d6 ||

%-------------------- TUNE SEPARATOR --------------------%

